src/icons/svg/fork-awesome.svg

<?xml version="1.0" encoding="UTF-8" standalone="no"?>
<svg
   xmlns:dc="http://purl.org/dc/elements/1.1/"
   xmlns:cc="http://creativecommons.org/ns#"
   xmlns:rdf="http://www.w3.org/1999/02/22-rdf-syntax-ns#"
   xmlns:svg="http://www.w3.org/2000/svg"
   xmlns="http://www.w3.org/2000/svg"
   xmlns:sodipodi="http://sodipodi.sourceforge.net/DTD/sodipodi-0.dtd"
   xmlns:inkscape="http://www.inkscape.org/namespaces/inkscape"
   width="640px"
   height="640px"
   viewBox="0 0 640 640"
   version="1.1"
   id="svg2"
   inkscape:version="0.91 r13725"
   sodipodi:docname="forkawesome.svg">
  <metadata
     id="metadata17">
    <rdf:RDF>
      <cc:Work
         rdf:about="">
        <dc:format>image/svg+xml</dc:format>
        <dc:type
           rdf:resource="http://purl.org/dc/dcmitype/StillImage" />
      </cc:Work>
    </rdf:RDF>
  </metadata>
  <sodipodi:namedview
     pagecolor="#ffffff"
     bordercolor="#666666"
     borderopacity="1"
     objecttolerance="10"
     gridtolerance="10"
     guidetolerance="10"
     inkscape:pageopacity="0"
     inkscape:pageshadow="2"
     inkscape:window-width="1061"
     inkscape:window-height="844"
     id="namedview15"
     showgrid="false"
     inkscape:zoom="0.36875"
     inkscape:cx="-0.20803735"
     inkscape:cy="-127.42456"
     inkscape:window-x="0"
     inkscape:window-y="0"
     inkscape:window-maximized="0"
     inkscape:current-layer="svg2" />
  <!-- Generator: Sketch 48.2 (47327) - http://www.bohemiancoding.com/sketch -->
  <title
     id="title4">forkawesome</title>
  <desc
     id="desc6">Created with Sketch.</desc>
  <path
     style="fill:#000000;fill-rule:nonzero;stroke:none;stroke-width:1"
     d="M 320 0 C 143.26888 0 0 143.26888 0 320 C 0 320.09453 0.0018711727 320.1887 0.001953125 320.2832 C 0.0018711727 320.37771 0 320.47188 0 320.56641 C -4.5059566e-17 320.76557 0.0074487728 320.96303 0.0078125 321.16211 C 0.014118939 322.9344 0.035301914 324.70336 0.0703125 326.46875 C 0.1021967 328.22998 0.15461173 329.98606 0.21484375 331.74023 C 0.22679849 332.07168 0.23703786 332.40319 0.25 332.73438 C 6.3073657 494.67305 132.67666 625.84084 292.58594 639.4082 C 292.5679 639.21576 292.54746 639.02443 292.5293 638.83203 C 301.58419 639.60192 310.74585 640 320 640 C 329.1538 640 338.21678 639.60891 347.17578 638.85547 C 347.15756 639.04849 347.13723 639.24052 347.11914 639.43359 C 507.17992 626.00179 633.70623 494.75407 639.75 332.69922 C 639.76173 332.39859 639.7723 332.09772 639.7832 331.79688 C 639.84445 330.02194 639.89746 328.24505 639.92969 326.46289 C 639.96463 324.69944 639.98589 322.93244 639.99219 321.16211 C 639.99255 320.96306 640 320.76554 640 320.56641 C 640 320.47188 639.99813 320.37771 639.99805 320.2832 C 639.99813 320.1887 640 320.09453 640 320 C 640 143.26888 496.73112 0 320 0 z M 225.33008 137.56641 L 242.69336 137.56641 C 245.33817 227.14501 247.9841 304.07374 250.62891 393.65234 C 250.85889 427.6899 295.5896 430.56593 295.47461 394.22852 C 300.07428 306.25981 307.43353 225.53512 312.0332 137.56641 L 319.85352 137.56641 L 327.67383 137.56641 C 332.2735 225.53512 339.63274 306.25981 344.23242 394.22852 C 344.11742 430.56593 388.84814 427.6899 389.07812 393.65234 C 391.72294 304.07374 394.36886 227.14501 397.01367 137.56641 L 414.37695 137.56641 C 424.72622 243.12886 441.97383 352.60027 431.39453 430.67969 C 420.81533 508.75911 370.67916 496.11048 355.61523 577.17969 C 353.35442 589.33582 351.44958 601.82474 349.85156 614.50977 C 340.03385 615.49303 330.07671 616 320 616 C 309.82202 616 299.76507 615.4853 289.85156 614.48242 C 288.25424 601.80667 286.35102 589.32722 284.0918 577.17969 C 269.02788 495.99549 218.88979 508.75911 208.31055 430.67969 C 197.73131 352.71526 214.98082 243.12886 225.33008 137.56641 z "
     id="path13" />
  <defs
     id="defs8" />
</svg>

<svg xmlns="http://www.w3.org/2000/svg" width="640" height="640" viewBox="0 0 640 640">
    <title>
        forkawesome
    </title>
    <path d="M320 0C143.269 0 0 143.269 0 320l.002.283-.002.283c0 .2.007.397.008.596a328.874 328.874 0 0 0 .207 10.578c.012.332.022.663.035.994 6.057 161.94 132.427 293.107 292.336 306.674l-.057-.576A324.19 324.19 0 0 0 320 640c9.154 0 18.217-.391 27.176-1.145l-.057.579c160.06-13.432 286.587-144.68 292.631-306.735.012-.3.022-.601.033-.902a336.78 336.78 0 0 0 .209-10.634c0-.2.008-.397.008-.597l-.002-.283L640 320C640 143.269 496.731 0 320 0zm-94.67 137.566h17.363c2.645 89.579 5.291 166.508 7.936 256.086.23 34.038 44.96 36.914 44.846.577 4.6-87.97 11.959-168.694 16.558-256.663h15.64c4.6 87.97 11.96 168.694 16.56 256.663-.116 36.337 44.615 33.46 44.845-.577 2.645-89.578 5.29-166.507 7.936-256.086h17.363c10.35 105.563 27.597 215.034 17.018 293.114-10.58 78.08-60.716 65.43-75.78 146.5-2.26 12.156-4.165 24.645-5.763 37.33A299.468 299.468 0 0 1 320 616c-10.178 0-20.235-.515-30.148-1.518-1.598-12.675-3.501-25.155-5.76-37.302-15.064-81.185-65.202-68.42-75.781-146.5-10.58-77.965 6.67-187.551 17.02-293.114z"/>
</svg>
